assets/img/icon-gift.svg

<svg width="37" height="36" viewBox="0 0 37 36" fill="none" xmlns="http://www.w3.org/2000/svg">
<g opacity="0.5">
<path opacity="0.5" d="M25.7784 1.03072C25.0146 0.264465 23.9007 -0.0404962 22.64 0.172088C21.4622 0.371053 20.2838 1.00881 19.3239 1.9681C19.0454 2.2483 18.8114 2.5694 18.6299 2.92029C18.4531 2.55774 18.221 2.22491 17.9418 1.93376C16.9944 0.958474 15.8296 0.300587 14.6553 0.0808965C13.4006 -0.155967 12.282 0.131821 11.5051 0.885046C10.7282 1.63827 10.4066 2.74738 10.602 4.00631C10.7844 5.19063 11.4026 6.37494 12.3501 7.35141C14.3385 9.40264 18.3066 8.60145 18.4748 8.56592L18.5245 8.55586L18.6773 8.5908C18.8449 8.62869 22.7981 9.49798 24.8209 7.48168C25.7832 6.52298 26.4245 5.34636 26.6276 4.16915C26.8437 2.912 26.5423 1.79697 25.7784 1.03072ZM17.8027 7.38161C16.844 7.5107 14.454 7.68598 13.2673 6.46199C12.5046 5.67501 12.0054 4.73348 11.8633 3.81208C11.733 2.97122 11.9225 2.25648 12.3927 1.79875C12.5772 1.62159 12.7977 1.48644 13.0393 1.40259C13.4349 1.26225 13.9057 1.2362 14.4203 1.33272C15.3369 1.50385 16.2619 2.03206 17.0258 2.81903C18.2124 4.04598 17.9614 6.42942 17.8027 7.38161ZM25.3693 3.95124C25.2111 4.87027 24.696 5.80232 23.9197 6.57627C22.7116 7.78013 20.3253 7.5634 19.3695 7.41773C19.2268 6.4608 19.0178 4.07382 20.2252 2.86996C21.0015 2.09601 21.9353 1.58438 22.855 1.42865C23.3713 1.3416 23.8415 1.37535 24.2347 1.52221C24.4748 1.61028 24.6929 1.74926 24.8742 1.92961C25.3379 2.39682 25.5137 3.11452 25.3693 3.95242V3.95124Z" fill="url(#paint0_linear)"/>
</g>
<path d="M18.8584 8.30833L18.4807 8.38827C18.3202 8.42203 14.5233 9.18828 12.6183 7.22587C11.7135 6.29263 11.1195 5.15628 10.9449 4.02822C10.7583 2.8214 11.0633 1.75966 11.8082 1.039C12.5532 0.318348 13.6226 0.0453636 14.8229 0.269199C15.948 0.479415 17.0636 1.10888 17.9678 2.04212C19.8699 4.00512 18.9852 7.77598 18.9461 7.93527L18.8584 8.30833ZM13.2797 1.53464C13.0485 1.61484 12.8374 1.74413 12.6609 1.91362C12.2097 2.35063 12.0297 3.03457 12.154 3.83932C12.2902 4.72104 12.7675 5.62171 13.4976 6.37494C14.6328 7.54622 16.9197 7.3816 17.837 7.25488C17.9892 6.34237 18.2284 4.06138 17.0932 2.89009C16.3631 2.13686 15.4778 1.63175 14.6008 1.46891C14.1093 1.37535 13.6587 1.40081 13.2797 1.53464Z" fill="#EE4744"/>
<path d="M18.2983 8.32489L18.2125 7.94828C18.1763 7.7878 17.3568 4.00214 19.2925 2.07289C20.2128 1.15504 21.3408 0.54512 22.4677 0.355629C23.6716 0.151927 24.7374 0.44386 25.4688 1.17695C26.2001 1.91004 26.4879 2.97711 26.2806 4.18038C26.0864 5.30548 25.4723 6.43057 24.5521 7.3502C22.6175 9.27648 18.8348 8.44746 18.6743 8.41075L18.2983 8.32489ZM23.9931 1.64831C23.6165 1.50738 23.1641 1.47481 22.6732 1.5583C21.7932 1.70693 20.8967 2.19665 20.1565 2.93744C19.0012 4.08918 19.2008 6.37195 19.3376 7.2892C20.2524 7.42836 22.5352 7.63621 23.6917 6.48387C24.4348 5.74308 24.9275 4.85129 25.0791 3.97194C25.2177 3.16956 25.0495 2.48266 24.6054 2.03795C24.4316 1.86534 24.2225 1.73241 23.9925 1.64831H23.9931Z" fill="#EE4744"/>
<g opacity="0.5">
<path opacity="0.5" d="M36.8121 7.31592H0V14.6818H1.91267V36H34.8994V14.6818H36.8121V7.31592Z" fill="url(#paint1_linear)"/>
</g>
<path d="M34.482 9.54297H2.3302V35.6376H34.482V9.54297Z" fill="#19CCD7"/>
<path d="M21.4349 14.2026H15.3771V35.6376H21.4349V14.2026Z" fill="#EE4744"/>
<path opacity="0.1" d="M34.482 8.1449H2.3302V14.6687H34.482V8.1449Z" fill="black"/>
<path d="M36.3455 7.67896H0.466034V14.2028H36.3455V7.67896Z" fill="#19CCD7"/>
<path d="M21.4349 7.67896H15.3771V14.2028H21.4349V7.67896Z" fill="#EE4744"/>
<defs>
<linearGradient id="paint0_linear" x1="18.621" y1="8.8093" x2="18.621" y2="0.000363337" gradientUnits="userSpaceOnUse">
<stop stop-color="#808080" stop-opacity="0.25"/>
<stop offset="0.54" stop-color="#808080" stop-opacity="0.12"/>
<stop offset="1" stop-color="#808080" stop-opacity="0.1"/>
</linearGradient>
<linearGradient id="paint1_linear" x1="15462.5" y1="23086.8" x2="15462.5" y2="9192.26" gradientUnits="userSpaceOnUse">
<stop stop-color="#808080" stop-opacity="0.25"/>
<stop offset="0.54" stop-color="#808080" stop-opacity="0.12"/>
<stop offset="1" stop-color="#808080" stop-opacity="0.1"/>
</linearGradient>
</defs>
</svg>

<svg width="37" height="36" viewBox="0 0 37 36" fill="none" xmlns="http://www.w3.org/2000/svg"><path opacity=".5" d="M25.778 1.03C25.015.265 23.901-.04 22.64.173c-1.178.2-2.356.837-3.316 1.796-.279.28-.513.601-.694.952a3.886 3.886 0 0 0-.688-.986C16.994.958 15.83.3 14.655.08c-1.254-.237-2.373.05-3.15.804-.777.753-1.098 1.862-.903 3.121.182 1.185.8 2.369 1.748 3.345 1.989 2.052 5.957 1.25 6.125 1.215l.05-.01.152.035c.168.038 4.121.907 6.144-1.11.962-.958 1.603-2.135 1.807-3.312.216-1.257-.086-2.372-.85-3.138zm-7.975 6.352c-.959.129-3.349.304-4.536-.92-.762-.787-1.262-1.729-1.404-2.65-.13-.84.06-1.556.53-2.013.184-.177.405-.313.646-.396.396-.14.867-.167 1.381-.07.917.17 1.842.7 2.606 1.486 1.186 1.227.935 3.61.777 4.563zm7.566-3.43c-.158.918-.673 1.85-1.45 2.624-1.207 1.204-3.594.987-4.55.842-.142-.957-.351-3.344.856-4.548.776-.774 1.71-1.286 2.63-1.441.516-.087.986-.054 1.38.093.24.088.458.227.64.408.463.467.639 1.185.494 2.022z" fill="url(#a)"/><path d="M18.858 8.308l-.377.08c-.16.034-3.958.8-5.863-1.162-.905-.933-1.498-2.07-1.673-3.198-.187-1.207.118-2.268.863-2.989.745-.72 1.815-.994 3.015-.77 1.125.21 2.24.84 3.145 1.773 1.902 1.963 1.017 5.734.978 5.893l-.088.373zM13.28 1.535a1.71 1.71 0 0 0-.62.379c-.45.437-.63 1.12-.506 1.925.136.882.614 1.783 1.344 2.536 1.135 1.171 3.422 1.007 4.339.88.152-.913.391-3.194-.744-4.365-.73-.753-1.615-1.258-2.492-1.421-.492-.094-.942-.068-1.321.066z" fill="#EE4744"/><path d="M18.298 8.325l-.085-.377c-.037-.16-.856-3.946 1.08-5.875.92-.918 2.048-1.528 3.175-1.717 1.204-.204 2.27.088 3 .821.732.733 1.02 1.8.813 3.003-.195 1.125-.809 2.25-1.729 3.17-1.934 1.926-5.717 1.097-5.878 1.06l-.376-.085zm5.695-6.677c-.377-.14-.829-.173-1.32-.09-.88.149-1.776.639-2.516 1.38-1.156 1.151-.956 3.434-.82 4.351.915.14 3.198.347 4.355-.805.743-.74 1.235-1.633 1.387-2.512.139-.802-.03-1.49-.474-1.934a1.697 1.697 0 0 0-.613-.39h.001z" fill="#EE4744"/><path opacity=".5" d="M36.812 7.316H0v7.366h1.913V36h32.986V14.682h1.913V7.316z" fill="url(#b)"/><path d="M34.482 9.543H2.33v26.095h32.152V9.543z" fill="#19CCD7"/><path d="M21.435 14.203h-6.058v21.435h6.058V14.203z" fill="#EE4744"/><path opacity=".1" d="M34.482 8.145H2.33v6.524h32.152V8.145z" fill="#000"/><path d="M36.346 7.679H.465v6.524h35.88V7.679z" fill="#19CCD7"/><path d="M21.435 7.679h-6.058v6.524h6.058V7.679z" fill="#EE4744"/><defs><linearGradient id="a" x1="18.621" y1="8.809" x2="18.621" gradientUnits="userSpaceOnUse"><stop stop-color="gray" stop-opacity=".25"/><stop offset=".54" stop-color="gray" stop-opacity=".12"/><stop offset="1" stop-color="gray" stop-opacity=".1"/></linearGradient><linearGradient id="b" x1="15462.5" y1="23086.8" x2="15462.5" y2="9192.26" gradientUnits="userSpaceOnUse"><stop stop-color="gray" stop-opacity=".25"/><stop offset=".54" stop-color="gray" stop-opacity=".12"/><stop offset="1" stop-color="gray" stop-opacity=".1"/></linearGradient></defs></svg>
